!!!!SEGMENT: pl-wn--sd-xvi-qu-273--030_gomolka-mikolaj--bede-cie-wielbil-moj-panie.krn
!!!cenid: 15xx:235
!!!COM: Gomółka, Mikołaj
!!!COM-rismid: pe30013343
!!!CDT: ~1535->1591/04/30
!!!CNT: Polish
!!!GTL: Melodiae na psalterz polski
!!!OTL: XXX. Będę Cię wielbił, mój Panie,
!!!PDT: 1580
!!!AGN: Sacred
!!!SMS-siglum: PL-Wn
!!!SMS-shelfmark: SD XVI.Qu.273
!!!SMS-shelfwork: 030 G
!!!NIFC-rismid:
!!!ONB-nifc: Melodiae na psalterz polski
**kern	**text	**kern	**text	**kern	**text	**kern	**text
*part4	*part4	*part3	*part3	*part2	*part2	*part1	*part1
*staff4	*staff4	*staff3	*staff3	*staff2	*staff2	*staff1	*staff1
*clefF3	*	*clefC3	*	*clefC2	*	*clefG2	*
*k[]	*	*k[]	*	*k[]	*	*k[]	*
*C:	*	*C:	*	*C:	*	*C:	*
*M4/2	*	*M4/2	*	*M4/2	*	*M4/2	*
*met(C|)	*	*met(C|)	*	*met(C|)	*	*met(C|)	*
=-	=	=	=	=	=	=	=
1G	Be-	1B	Be-	1d	Be-	1g	Be-
2E	-de	2B	-de	2.e	-de	2g	-de
2C	ćię	2c/	ćię	.	.	2cc	ćię
.	.	.	.	4f	ćię	.	.
=3-	=3	=3	=3	=3	=3	=3	=3
1G	wiel-	1d	wiel-	2g	wiel-	2./b	wiel-
.	.	.	.	2g	.	.	.
.	.	.	.	.	.	4cc	.
2G	-bił	2B	-bił	2g	-bił	2dd	-bił
2E	móy	1c	móy	2g	móy	2ee	móy
=4-	=4	=4	=4	=4	=4	=4	=4
1A	pá	.	.	2e/	pá	1cc	pá
.	.	2c/	pá	2f#X	.	.	.
2G	-nie	2d	-nie	2g	-nie	2b/	-nie
2c	Pó-	2e	Pó-	4c	Pó-	2g	Pó-
.	.	.	.	4d	.	.	.
=5-	=5	=5	=5	=5	=5	=5	=5
2c	-ťi	2e	-ťi	4e/	-ťi	2g	-ťi
.	.	.	.	4f\	.	.	.
2B	mię	2d	mię	2g	mię	2g	mię
2.A	ná	1c	ná	1e	ná	2.cc	ná
4G	.	.	.	.	.	4b/	.
=6-	=6	=6	=6	=6	=6	=6	=6
2F/	świe-	2c/	świe-	2f	świe-	2a	świe-
2G	-ćie	2B	-ćie	2d	-ćie	1g	-ćie
1D	ӡʃtá -	1A	ӡʃtá -	2.d	ӡʃtá -	.	.
.	.	.	.	.	.	2f	ӡʃtá -
.	.	.	.	4c	.	.	.
=7-	=7	=7	=7	=7	=7	=7	=7
1G	-nie	1G	-nie	1B	-nie	1g	-nie
!!LO:PB:g=original
1G	Boś	1d	Boś	1g	Boś	1b	Boś
=8-	=8	=8	=8	=8	=8	=8	=8
2G	mię	2d	mię	2g	mię	2b/	mię
4F	w_prӡy-	2e	w_prӡy-	1g	w_prӡy-	2cc	w_prӡy-
4E	.	.	.	.	.	.	.
4D	.	1f	-(go-	.	.	1dd	-(go-
4C	.	.	.	.	.	.	.
2D	-go-	.	.	2f	-g(o-	.	.
=9-	=9	=9	=9	=9	=9	=9	=9
2C	-dzie	2e	-dzie)	2g	-dzie)	2g	-dzie)
1c	rá-	4d	rá-	4f\	rá-	1a	rá-
.	.	4c/	.	4e/	.	.	.
.	.	1d	-to-	2f	-to-	.	.
2B	-to-	.	.	4e	.	4g	-to-
.	.	.	.	4d	.	4f	.
=10-	=10	=10	=10	=10	=10	=10	=10
2c	-wał	2c/	-wał	2e	-wał	2a	-wał
2c	I	2e	I	4c	I	2.g	I
.	.	.	.	4d	.	.	.
2c	smié-	2e	smié-	4e	smié-	.	.
.	.	.	.	4f	.	4a	smié-
2B	-chów	2d	-chów	2g	-chów	2b/	-chów
.	.	.	.	.	.	.	.
=11-	=11	=11	=11	=11	=11	=11	=11
2.A	ludz-	1c	ludz-	2e/	ludz-	2.cc	ludz-
.	.	.	.	2e/	.	.	.
4G	.	.	.	.	.	4b/	.
2F	-ťich	2c/	-ťich	2f	-ťich	2a	-ťich
1G	u-	1B	u-	2d	u-	2g	u-
=12-	=12	=12	=12	=12	=12	=12	=12
.	.	.	.	1e	-cho-	2g	-cho-
2BB	.	4c/	.	.	.	4f#X	.
.	.	4B	.	.	.	4e	.
1C	-cho-	4A	.	2.d	.	4f#	.
.	.	4G	.	.	.	2g	.
.	.	2A	-cho-	.	.	.	.
.	.	.	.	4c	.	4f#X	.
=13-	=13	=13	=13	=13	=13	=13	=13
!!LO:N:vis=00
0G/	-wał.	0G/	-wał.	0B	-wał.	0g;	-wał.
==	==	==	==	==	==	==	==
*-	*-	*-	*-	*-	*-	*-	*-
!!!RDF**kern: l = terminal long
!!!system-decoration: s1,s2,s3,s4
!!!ENC:Anna Matuszewska
!!!END:2020-02-06
!!!URL-scan: https://polona.pl/item/melodiae-na-psalterz-polski,Nzk3MTM4ODQ/81 Scan on Polona
!!!IIIF: https://polona.pl/iiif/item/Nzk3MTM4ODQ/manifest.json
